svg/u1f6fa.svg

<svg viewBox="0 0 128 128" xmlns="http://www.w3.org/2000/svg">
  <rect fill="#9E9E9E" height="15.92" width="8.72" x="56.5" y="91"/>
  <g opacity=".2">
    <path d="m63.22 93v11.92h-4.72v-11.92h4.72m2-2h-8.72v15.92h8.72v-15.92z" fill="#212121"/>
  </g>
  <path d="m56.24 93.72h8.98v-5.44h-8.98c-1.5 0-2.72 1.22-2.72 2.72s1.22 2.72 2.72 2.72z" fill="#4E342E"/>
  <g opacity=".2">
    <path d="m64.22 89.28v3.44h-7.98c-0.95 0-1.72-0.77-1.72-1.72s0.77-1.72 1.72-1.72h7.98m1-1h-8.98c-1.5 0-2.72 1.22-2.72 2.72s1.22 2.72 2.72 2.72h8.98v-5.44z" fill="#eee"/>
  </g>
  <line fill="none" stroke="#212121" stroke-linecap="round" stroke-miterlimit="10" stroke-width="3" x1="43.75" x2="49.77" y1="78.23" y2="84.25"/>
  <line fill="none" stroke="#212121" stroke-linecap="round" stroke-miterlimit="10" stroke-width="3" x1="37.12" x2="46.76" y1="90.88" y2="81.24"/>
  <path d="m121.92 78.01c-1.07-5.09-2.86-13.51-4.72-22.09-3.32-15.37-16.35-14.56-17.78-14.56h-56.52c-0.72 0-3.01-0.01-4.83 2.03-4.07 4.57-11.16 16.46-15.16 22.42-1.53 2.28-2.34 4.95-2.35 7.7-0.02 5.4-0.04 17.05-0.04 24.99l9.12 7.91c3.86 3.35 8.8 5.19 13.91 5.19h72.53c3.3 0 6-0.94 6-6.84v-25.29c0-0.49-0.05-0.98-0.16-1.46zm-81.7 20.1v-39.36c0-2.64 2.14-4.78 4.78-4.78h18.05v48.91h-18.05c-2.64 0.01-4.78-2.13-4.78-4.77zm49.66-15.17h-3.16c-5.78 0-10.47 4.69-10.47 10.47v-1c0 5.78-1.69 10.47-7.47 10.47h-1.73v-48.9h18.05c2.64 0 4.78 2.14 4.78 4.78v24.18z" fill="#FDD835"/>
  <path d="m35.61 46.51s-10.67 15.68-13.84 21.38c-0.81 1.46-1.24 5.74-1.24 5.74h8.35c3.72 0 6.73-3.01 6.73-6.73v-20.39z" fill="#90A4AE"/>
  <path d="m121.92 78.01c-0.11-0.53-0.02-0.11-0.15-0.72h-31.89v5.65h-3.16c-5.78 0-10.47 4.69-10.47 10.47v-1c0 5.78-2.69 10.47-8.47 10.47h-22.78c-2.64 0-4.78-2.14-4.78-4.78v-20.81h-19.67l-0.02 22.73 9.12 6.4c3.86 3.35 8.8 5.19 13.91 5.19h72.53c3.3 0 6-0.94 6-6.84v-25.13c-0.01-0.49-0.06-1.15-0.17-1.63z" fill="#43A047"/>
  <path d="m122.08 95.27v-11.87l-4.42 0.01c-1.04 0-2.22 0.01-1.88 2.24l0.95 7.5c0.34 1.62 0.86 2.23 1.9 2.23l2.62-0.01c0.34-0.01 0.6-0.05 0.83-0.1z" fill="#FF6E40"/>
  <path d="m32.45 87.65h-5.33c-1.21 0-2.18-0.98-2.18-2.18v-0.88c0-1.21 0.98-2.18 2.18-2.18h5.33c1.21 0 2.18 0.98 2.18 2.18v0.88c0 1.2-0.97 2.18-2.18 2.18z" fill="#FF6E40"/>
  <rect fill="#43A047" height="49.72" width="4" x="63.05" y="53.94"/>
  <line fill="none" opacity=".2" stroke="#212121" stroke-linecap="round" stroke-miterlimit="10" stroke-width="2" x1="96.42" x2="105.08" y1="53.67" y2="48.83"/>
  <line fill="none" opacity=".2" stroke="#212121" stroke-linecap="round" stroke-miterlimit="10" stroke-width="2" x1="97.5" x2="108.25" y1="57.62" y2="57.62"/>
  <line fill="none" opacity=".2" stroke="#212121" stroke-linecap="round" stroke-miterlimit="10" stroke-width="2" x1="94" x2="96.97" y1="50.92" y2="46.32"/>
  <g opacity=".2">
    <path d="m100.14 43.35c4.59 0 12.66 1.69 15.11 12.99 1.69 7.83 3.54 16.5 4.72 22.08 0.07 0.34 0.11 0.7 0.11 1.06v25.29c0 4.52-1.51 4.84-4 4.84h-72.53c-4.63 0-9.1-1.67-12.6-4.7l-8.43-7.32c0-7.83 0.02-18.8 0.04-24.07 0.01-2.36 0.7-4.64 2.01-6.59 1.17-1.75 2.61-4.01 4.14-6.41 3.6-5.64 8.07-12.67 10.85-15.79 1.22-1.36 2.74-1.36 3.34-1.36h56.52 0.24c0.14-0.01 0.3-0.02 0.48-0.02m-35.09 8.63h-20.05c-3.74 0-6.78 3.04-6.78 6.78v39.35c0 3.74 3.04 6.78 6.78 6.78h23.78c4.18 0 9.13-2.02 9.45-11.47h0.02c0-4.67 3.8-8.47 8.47-8.47h3.16 2v-26.2c0-3.74-3.04-6.78-6.78-6.78h-20.05m35.09-10.62c-0.33 0-0.58 0.01-0.71 0.01h-56.52-0.03c-0.74 0-3.01 0.01-4.81 2.03-4.07 4.57-11.16 16.46-15.16 22.42-1.53 2.28-2.34 4.95-2.35 7.7-0.02 5.4-0.04 17.05-0.04 24.99l9.12 7.91c3.86 3.35 8.8 5.19 13.91 5.19h72.53c3.3 0 6-0.94 6-6.84v-25.29c0-0.49-0.05-0.98-0.15-1.47-1.07-5.09-2.86-13.51-4.72-22.09-3.01-13.89-13.94-14.56-17.07-14.56zm-33.09 61.54v-48.91h18.05c2.64 0 4.78 2.14 4.78 4.78v24.19h-3.16c-5.78 0-10.47 4.69-10.47 10.47v-1c0 5.78-1.69 10.47-7.47 10.47h-1.73zm-22.05 0c-2.64 0-4.78-2.14-4.78-4.78v-39.36c0-2.64 2.14-4.78 4.78-4.78h18.05v48.91h-18.05v0.01z" fill="#424242"/>
  </g>
  <circle cx="104.08" cy="113.66" fill="#4E342E" r="10"/>
  <g opacity=".2">
    <path d="m104.08 104.66c4.96 0 9 4.04 9 9s-4.04 9-9 9-9-4.04-9-9 4.03-9 9-9m0-1c-5.52 0-10 4.48-10 10s4.48 10 10 10 10-4.48 10-10c0-5.53-4.48-10-10-10z" fill="#eee"/>
  </g>
  <circle cx="104.08" cy="113.66" fill="#BDBDBD" r="5.65"/>
  <circle cx="14.66" cy="94.64" fill="#FFEB3B" r="4.79"/>
  <circle cx="17.64" cy="113.66" fill="#4E342E" r="10"/>
  <g opacity=".2">
    <path d="m17.64 104.66c4.96 0 9 4.04 9 9s-4.04 9-9 9-9-4.04-9-9 4.04-9 9-9m0-1c-5.52 0-10 4.48-10 10s4.48 10 10 10 10-4.48 10-10c0-5.53-4.48-10-10-10z" fill="#eee"/>
  </g>
  <circle cx="17.64" cy="113.66" fill="#9E9E9E" r="5.65"/>
  <line fill="none" stroke="#E0E0E0" stroke-linecap="round" stroke-miterlimit="10" stroke-width="3" x1="18.12" x2="25.06" y1="113.66" y2="106.72"/>
  <path d="m22.18 97.58c0.11 1.66-1.2 1.86-2.85 1.86h-5.03v-9.58c1.6-0.01 7.37-0.01 7.88 7.72z" fill="#66BB6A"/>
  <path d="m27.43 109.19h-19.58c-1.52 0-2.64-1.42-2.29-2.9 0 0 3.56-7.71 12.08-7.71s12.08 7.71 12.08 7.71c0.36 1.48-0.77 2.9-2.29 2.9z" fill="#66BB6A"/>
  <g opacity=".2">
    <path d="m14.72 91.86c2.17 0.05 5.05 0.71 5.45 5.64l-6.2-0.17c-1.23-0.32-2.09-1.42-2.09-2.68 0-1.46 1.11-2.64 2.57-2.76l0.27-0.03m13.06 15.03c-0.01 0.07-0.04 0.12-0.07 0.16-0.05 0.06-0.14 0.14-0.28 0.14h-19.58c-0.14 0-0.23-0.07-0.28-0.14-0.03-0.04-0.06-0.09-0.07-0.16 0.52-0.95 4.09-6.42 9.94-6.42s9.81 5.46 10.34 6.42zm-13.12-17.04h-0.02-0.35v0.04c-2.47 0.19-4.41 2.24-4.41 4.75 0 2.23 1.53 4.08 3.59 4.62-5.53 1.88-7.91 7.03-7.91 7.03-0.35 1.48 0.77 2.9 2.29 2.9h19.58c1.52 0 2.64-1.42 2.29-2.9 0 0-2.51-5.4-8.34-7.15 0.54-0.25 0.85-0.72 0.8-1.56-0.47-7.17-5.47-7.68-7.48-7.72-0.01 0-0.02-0.01-0.04-0.01z" fill="#212121"/>
  </g>
  <path d="m29.72 106.29s-2.51-5.4-8.34-7.15c0.54-0.25 0.85-0.72 0.8-1.56-0.47-7.17-5.47-7.68-7.48-7.72h-0.04-0.02-0.35v0.04c-0.01 0-0.03 0.01-0.04 0.01v2.02c0.07-0.01 0.13-0.03 0.2-0.03l0.27-0.03c2.17 0.05 5.05 0.71 5.45 5.64l-5.92-0.16v1.68s-0.36 0.09-0.79 0.24c-5.53 1.88-7.91 7.03-7.91 7.03-0.35 1.48 0.77 2.9 2.29 2.9h19.58c1.53-0.01 2.66-1.43 2.3-2.91zm-2.01 0.76c-0.05 0.06-0.14 0.14-0.28 0.14h-19.58c-0.14 0-0.23-0.07-0.28-0.14-0.03-0.04-0.06-0.09-0.07-0.16 0.52-0.95 4.09-6.42 9.94-6.42s9.81 5.46 10.35 6.43c-0.02 0.06-0.05 0.11-0.08 0.15z" fill="#2E7D32"/>
</svg>

<svg viewBox="0 0 128 128" xmlns="http://www.w3.org/2000/svg" xmlns:xlink="http://www.w3.org/1999/xlink">
  <g id="Layer_6">
    <g>
      <g>
        <rect fill="#9E9E9E" height="15.92" width="8.72" x="56.5" y="91"/>
        <g opacity="0.2">
          <path d="M63.22,93v11.92H58.5V93H63.22 M65.22,91H56.5v15.92h8.72V91L65.22,91z" fill="#212121"/>
        </g>
      </g>
      <g>
        <path d="M56.24,93.72h8.98v-5.44h-8.98c-1.5,0-2.72,1.22-2.72,2.72v0C53.52,92.5,54.74,93.72,56.24,93.72z" fill="#4E342E"/>
        <g opacity="0.2">
          <path d="M64.22,89.28v3.44h-7.98c-0.95,0-1.72-0.77-1.72-1.72s0.77-1.72,1.72-1.72H64.22 M65.22,88.28h-8.98 c-1.5,0-2.72,1.22-2.72,2.72v0c0,1.5,1.22,2.72,2.72,2.72h8.98V88.28L65.22,88.28z" fill="#EEEEEE"/>
        </g>
      </g>
      <line fill="none" stroke="#212121" stroke-linecap="round" stroke-miterlimit="10" stroke-width="3" x1="43.75" x2="49.77" y1="78.23" y2="84.25"/>
      <line fill="none" stroke="#212121" stroke-linecap="round" stroke-miterlimit="10" stroke-width="3" x1="37.12" x2="46.76" y1="90.88" y2="81.24"/>
      <path d="M121.92,78.01c-1.07-5.09-2.86-13.51-4.72-22.09c-3.32-15.37-16.35-14.56-17.78-14.56c0,0-46.76,0-56.52,0 c-0.72,0-3.01-0.01-4.83,2.03C34,47.96,26.91,59.85,22.91,65.81c-1.53,2.28-2.34,4.95-2.35,7.7c-0.02,5.4-0.04,17.05-0.04,24.99 l9.12,7.91c3.86,3.35,8.8,5.19,13.91,5.19h72.53c3.3,0,6-0.94,6-6.84V79.47C122.08,78.98,122.03,78.49,121.92,78.01z M40.22,98.11 V58.75c0-2.64,2.14-4.78,4.78-4.78h18.05v48.91H45C42.36,102.89,40.22,100.75,40.22,98.11z M89.88,82.94l-3.16,0 c-5.78,0-10.47,4.69-10.47,10.47v-1c0,5.78-1.69,10.47-7.47,10.47h-1.73V53.98H85.1c2.64,0,4.78,2.14,4.78,4.78V82.94z" fill="#FDD835"/>
      <path d="M35.61,46.51c0,0-10.67,15.68-13.84,21.38c-0.81,1.46-1.24,5.74-1.24,5.74h8.35 c3.72,0,6.73-3.01,6.73-6.73V46.51z" fill="#90A4AE"/>
      <path d="M121.92,78.01c-0.11-0.53-0.02-0.11-0.15-0.72H89.88v5.65l-3.16,0c-5.78,0-10.47,4.69-10.47,10.47v-1 c0,5.78-2.69,10.47-8.47,10.47H45c-2.64,0-4.78-2.14-4.78-4.78V77.29H20.55l-0.02,22.73l9.12,6.4c3.86,3.35,8.8,5.19,13.91,5.19 h72.53c3.3,0,6-0.94,6-6.84V79.64C122.08,79.15,122.03,78.49,121.92,78.01z" fill="#43A047"/>
      <path d="M122.08,95.27V83.4l-4.42,0.01c-1.04,0-2.22,0.01-1.88,2.24l0.95,7.5c0.34,1.62,0.86,2.23,1.9,2.23 l2.62-0.01C121.59,95.36,121.85,95.32,122.08,95.27z" fill="#FF6E40"/>
      <path d="M32.45,87.65h-5.33c-1.21,0-2.18-0.98-2.18-2.18v-0.88c0-1.21,0.98-2.18,2.18-2.18h5.33 c1.21,0,2.18,0.98,2.18,2.18v0.88C34.63,86.67,33.66,87.65,32.45,87.65z" fill="#FF6E40"/>
      <rect fill="#43A047" height="49.72" width="4" x="63.05" y="53.94"/>
      <line fill="none" opacity="0.2" stroke="#212121" stroke-linecap="round" stroke-miterlimit="10" stroke-width="2" x1="96.42" x2="105.08" y1="53.67" y2="48.83"/>
      <line fill="none" opacity="0.2" stroke="#212121" stroke-linecap="round" stroke-miterlimit="10" stroke-width="2" x1="97.5" x2="108.25" y1="57.62" y2="57.62"/>
      <line fill="none" opacity="0.2" stroke="#212121" stroke-linecap="round" stroke-miterlimit="10" stroke-width="2" x1="94" x2="96.97" y1="50.92" y2="46.32"/>
      <g opacity="0.2">
        <path d="M100.14,43.35c4.59,0,12.66,1.69,15.11,12.99c1.69,7.83,3.54,16.5,4.72,22.08 c0.07,0.34,0.11,0.7,0.11,1.06v25.29c0,4.52-1.51,4.84-4,4.84H43.55c-4.63,0-9.1-1.67-12.6-4.7l-8.43-7.32 c0-7.83,0.02-18.8,0.04-24.07c0.01-2.36,0.7-4.64,2.01-6.59c1.17-1.75,2.61-4.01,4.14-6.41c3.6-5.64,8.07-12.67,10.85-15.79 c1.22-1.36,2.74-1.36,3.34-1.36h56.52l0.24,0C99.8,43.36,99.96,43.35,100.14,43.35 M65.05,51.98h-2H45 c-3.74,0-6.78,3.04-6.78,6.78v39.35c0,3.74,3.04,6.78,6.78,6.78h18.05h2h2h1.73c4.18,0,9.13-2.02,9.45-11.47h0.02 c0-4.67,3.8-8.47,8.47-8.47l3.16,0l2,0v-2V58.75c0-3.74-3.04-6.78-6.78-6.78H67.05H65.05 M100.14,41.35 c-0.33,0-0.58,0.01-0.71,0.01c0,0-46.76,0-56.52,0c-0.01,0-0.02,0-0.03,0c-0.74,0-3.01,0.01-4.81,2.03 C34,47.96,26.91,59.85,22.91,65.81c-1.53,2.28-2.34,4.95-2.35,7.7c-0.02,5.4-0.04,17.05-0.04,24.99l9.12,7.91 c3.86,3.35,8.8,5.19,13.91,5.19h72.53c3.3,0,6-0.94,6-6.84V79.47c0-0.49-0.05-0.98-0.15-1.47c-1.07-5.09-2.86-13.51-4.72-22.09 C114.2,42.02,103.27,41.35,100.14,41.35L100.14,41.35z M67.05,102.89V53.98H85.1c2.64,0,4.78,2.14,4.78,4.78v24.19l-3.16,0 c-5.78,0-10.47,4.69-10.47,10.47v-1c0,5.78-1.69,10.47-7.47,10.47H67.05L67.05,102.89z M45,102.89c-2.64,0-4.78-2.14-4.78-4.78 V58.75c0-2.64,2.14-4.78,4.78-4.78h18.05v48.91H45L45,102.89z" fill="#424242"/>
      </g>
      <g>
        <g>
          <circle cx="104.08" cy="113.66" fill="#4E342E" r="10"/>
          <g opacity="0.2">
            <path d="M104.08,104.66c4.96,0,9,4.04,9,9s-4.04,9-9,9s-9-4.04-9-9S99.11,104.66,104.08,104.66 M104.08,103.66 c-5.52,0-10,4.48-10,10c0,5.52,4.48,10,10,10c5.52,0,10-4.48,10-10C114.08,108.13,109.6,103.66,104.08,103.66L104.08,103.66z" fill="#EEEEEE"/>
          </g>
        </g>
        <circle cx="104.08" cy="113.66" fill="#BDBDBD" r="5.65"/>
      </g>
      <circle cx="14.66" cy="94.64" fill="#FFEB3B" r="4.79"/>
      <g>
        <g>
          <circle cx="17.64" cy="113.66" fill="#4E342E" r="10"/>
          <g opacity="0.2">
            <path d="M17.64,104.66c4.96,0,9,4.04,9,9s-4.04,9-9,9s-9-4.04-9-9S12.68,104.66,17.64,104.66 M17.64,103.66 c-5.52,0-10,4.48-10,10c0,5.52,4.48,10,10,10s10-4.48,10-10C27.64,108.13,23.16,103.66,17.64,103.66L17.64,103.66z" fill="#EEEEEE"/>
          </g>
        </g>
        <circle cx="17.64" cy="113.66" fill="#9E9E9E" r="5.65"/>
      </g>
      <line fill="none" stroke="#E0E0E0" stroke-linecap="round" stroke-miterlimit="10" stroke-width="3" x1="18.12" x2="25.06" y1="113.66" y2="106.72"/>
      <path d="M22.18,97.58c0.11,1.66-1.2,1.86-2.85,1.86h-5.03v-9.58C15.9,89.85,21.67,89.85,22.18,97.58z" fill="#66BB6A"/>
      <path d="M27.43,109.19H7.85c-1.52,0-2.64-1.42-2.29-2.9c0,0,3.56-7.71,12.08-7.71s12.08,7.71,12.08,7.71 C30.08,107.77,28.95,109.19,27.43,109.19z" fill="#66BB6A"/>
      <g opacity="0.2">
        <path d="M14.72,91.86c2.17,0.05,5.05,0.71,5.45,5.64l-6.2-0.17c-1.23-0.32-2.09-1.42-2.09-2.68 c0-1.46,1.11-2.64,2.57-2.76L14.72,91.86 M27.78,106.89c-0.01,0.07-0.04,0.12-0.07,0.16c-0.05,0.06-0.14,0.14-0.28,0.14H7.85 c-0.14,0-0.23-0.07-0.28-0.14c-0.03-0.04-0.06-0.09-0.07-0.16c0.52-0.95,4.09-6.42,9.94-6.42S27.25,105.93,27.78,106.89z M14.66,89.85c-0.01,0-0.01,0-0.02,0c-0.13,0-0.25,0-0.35,0v0.04c-2.47,0.19-4.41,2.24-4.41,4.75c0,2.23,1.53,4.08,3.59,4.62 c-5.53,1.88-7.91,7.03-7.91,7.03c-0.35,1.48,0.77,2.9,2.29,2.9h19.58c1.52,0,2.64-1.42,2.29-2.9c0,0-2.51-5.4-8.34-7.15 c0.54-0.25,0.85-0.72,0.8-1.56c-0.47-7.17-5.47-7.68-7.48-7.72C14.69,89.86,14.68,89.85,14.66,89.85L14.66,89.85z" fill="#212121"/>
      </g>
      <path d="M29.72,106.29c0,0-2.51-5.4-8.34-7.15c0.54-0.25,0.85-0.72,0.8-1.56c-0.47-7.17-5.47-7.68-7.48-7.72 c-0.01,0-0.03,0-0.04,0c-0.01,0-0.01,0-0.02,0c-0.13,0-0.25,0-0.35,0v0.04c-0.01,0-0.03,0.01-0.04,0.01v2.02 c0.07-0.01,0.13-0.03,0.2-0.03l0.27-0.03c2.17,0.05,5.05,0.71,5.45,5.64l-5.92-0.16v1.68c0,0-0.36,0.09-0.79,0.24 c-5.53,1.88-7.91,7.03-7.91,7.03c-0.35,1.48,0.77,2.9,2.29,2.9h19.58C28.95,109.19,30.08,107.77,29.72,106.29z M27.71,107.05 c-0.05,0.06-0.14,0.14-0.28,0.14H7.85c-0.14,0-0.23-0.07-0.28-0.14c-0.03-0.04-0.06-0.09-0.07-0.16c0.52-0.95,4.09-6.42,9.94-6.42 s9.81,5.46,10.35,6.43C27.77,106.96,27.74,107.01,27.71,107.05z" fill="#2E7D32"/>
    </g>
  </g>
</svg>
